Papirus-Dark/24x24/actions/run-build-configure.svg

<?xml version="1.0" encoding="UTF-8" standalone="no"?>
<!--Created with Inkscape (http://www.inkscape.org/)-->
<svg xmlns:osb="http://www.openswatchbook.org/uri/2009/osb" xmlns:dc="http://purl.org/dc/elements/1.1/" xmlns:cc="http://creativecommons.org/ns#" xmlns:rdf="http://www.w3.org/1999/02/22-rdf-syntax-ns#" xmlns:svg="http://www.w3.org/2000/svg" xmlns="http://www.w3.org/2000/svg" xmlns:sodipodi="http://sodipodi.sourceforge.net/DTD/sodipodi-0.dtd" xmlns:inkscape="http://www.inkscape.org/namespaces/inkscape" width="24" height="24" id="svg3049" version="1.1" inkscape:version="0.91 r13725" sodipodi:docname="run-build-configure.svg" inkscape:export-filename="/home/uri/.kde/share/icons/NITRUX-KDE/16x16/actions/view-right-new.png" inkscape:export-xdpi="30" inkscape:export-ydpi="30">
    <defs id="defs3051">
        <style type="text/css" id="current-color-scheme">
            .ColorScheme-Text { color:#4d4d4d; } .ColorScheme-Background { color:#eff0f1; } .ColorScheme-Highlight { color:#3daee9; } .ColorScheme-ViewText { color:#31363b; } .ColorScheme-ViewBackground { color:#fcfcfc; } .ColorScheme-ViewHover { color:#93cee9; } .ColorScheme-ViewFocus{ color:#3daee9; } .ColorScheme-ButtonText { color:#31363b; } .ColorScheme-ButtonBackground { color:#eff0f1; } .ColorScheme-ButtonHover { color:#93cee9; } .ColorScheme-ButtonFocus{ color:#3daee9; }
        </style>
        <style id="current-color-scheme-6" type="text/css">
            .ColorScheme-Text { color:#4d4d4d; } .ColorScheme-Background { color:#eff0f1; } .ColorScheme-Highlight { color:#3daee9; } .ColorScheme-ViewText { color:#31363b; } .ColorScheme-ViewBackground { color:#fcfcfc; } .ColorScheme-ViewHover { color:#93cee9; } .ColorScheme-ViewFocus{ color:#3daee9; } .ColorScheme-ButtonText { color:#31363b; } .ColorScheme-ButtonBackground { color:#eff0f1; } .ColorScheme-ButtonHover { color:#93cee9; } .ColorScheme-ButtonFocus{ color:#3daee9; }
        </style>
        <style type="text/css" id="current-color-scheme-5">
            .ColorScheme-Text { color:#4d4d4d; } .ColorScheme-Background { color:#eff0f1; } .ColorScheme-Highlight { color:#3daee9; } .ColorScheme-ViewText { color:#31363b; } .ColorScheme-ViewBackground { color:#fcfcfc; } .ColorScheme-ViewHover { color:#93cee9; } .ColorScheme-ViewFocus{ color:#3daee9; } .ColorScheme-ButtonText { color:#31363b; } .ColorScheme-ButtonBackground { color:#eff0f1; } .ColorScheme-ButtonHover { color:#93cee9; } .ColorScheme-ButtonFocus{ color:#3daee9; }
        </style>
        <style type="text/css" id="current-color-scheme-1">
            .ColorScheme-Text { color:#4d4d4d; } .ColorScheme-Background { color:#eff0f1; } .ColorScheme-Highlight { color:#3daee9; } .ColorScheme-ViewText { color:#31363b; } .ColorScheme-ViewBackground { color:#fcfcfc; } .ColorScheme-ViewHover { color:#93cee9; } .ColorScheme-ViewFocus{ color:#3daee9; } .ColorScheme-ButtonText { color:#31363b; } .ColorScheme-ButtonBackground { color:#eff0f1; } .ColorScheme-ButtonHover { color:#93cee9; } .ColorScheme-ButtonFocus{ color:#3daee9; }
        </style>
        <style type="text/css" id="current-color-scheme-8">
            .ColorScheme-Text { color:#4d4d4d; } .ColorScheme-Background { color:#eff0f1; } .ColorScheme-Highlight { color:#3daee9; } .ColorScheme-ViewText { color:#31363b; } .ColorScheme-ViewBackground { color:#fcfcfc; } .ColorScheme-ViewHover { color:#93cee9; } .ColorScheme-ViewFocus{ color:#3daee9; } .ColorScheme-ButtonText { color:#31363b; } .ColorScheme-ButtonBackground { color:#eff0f1; } .ColorScheme-ButtonHover { color:#93cee9; } .ColorScheme-ButtonFocus{ color:#3daee9; }
        </style>
        <style type="text/css" id="current-color-scheme-7">
            .ColorScheme-Text { color:#4d4d4d; } .ColorScheme-Background { color:#eff0f1; } .ColorScheme-Highlight { color:#3daee9; } .ColorScheme-ViewText { color:#31363b; } .ColorScheme-ViewBackground { color:#fcfcfc; } .ColorScheme-ViewHover { color:#93cee9; } .ColorScheme-ViewFocus{ color:#3daee9; } .ColorScheme-ButtonText { color:#31363b; } .ColorScheme-ButtonBackground { color:#eff0f1; } .ColorScheme-ButtonHover { color:#93cee9; } .ColorScheme-ButtonFocus{ color:#3daee9; }
        </style>
        <linearGradient id="linearGradient5606" osb:paint="solid">
            <stop id="stop5608" offset="0" style="stop-color:#ffffff;stop-opacity:1;"/>
        </linearGradient>
        <style id="current-color-scheme-0" type="text/css">
            .ColorScheme-Text { color:#4d4d4d; } .ColorScheme-Background { color:#eff0f1; } .ColorScheme-Highlight { color:#3daee9; } .ColorScheme-ViewText { color:#31363b; } .ColorScheme-ViewBackground { color:#fcfcfc; } .ColorScheme-ViewHover { color:#93cee9; } .ColorScheme-ViewFocus{ color:#3daee9; } .ColorScheme-ButtonText { color:#31363b; } .ColorScheme-ButtonBackground { color:#eff0f1; } .ColorScheme-ButtonHover { color:#93cee9; } .ColorScheme-ButtonFocus{ color:#3daee9; }
        </style>
        <style type="text/css" id="current-color-scheme-5-4">
            .ColorScheme-Text { color:#4d4d4d; } .ColorScheme-Background { color:#eff0f1; } .ColorScheme-Highlight { color:#3daee9; } .ColorScheme-ViewText { color:#31363b; } .ColorScheme-ViewBackground { color:#fcfcfc; } .ColorScheme-ViewHover { color:#93cee9; } .ColorScheme-ViewFocus{ color:#3daee9; } .ColorScheme-ButtonText { color:#31363b; } .ColorScheme-ButtonBackground { color:#eff0f1; } .ColorScheme-ButtonHover { color:#93cee9; } .ColorScheme-ButtonFocus{ color:#3daee9; }
        </style>
        <style type="text/css" id="current-color-scheme-1-5">
            .ColorScheme-Text { color:#4d4d4d; } .ColorScheme-Background { color:#eff0f1; } .ColorScheme-Highlight { color:#3daee9; } .ColorScheme-ViewText { color:#31363b; } .ColorScheme-ViewBackground { color:#fcfcfc; } .ColorScheme-ViewHover { color:#93cee9; } .ColorScheme-ViewFocus{ color:#3daee9; } .ColorScheme-ButtonText { color:#31363b; } .ColorScheme-ButtonBackground { color:#eff0f1; } .ColorScheme-ButtonHover { color:#93cee9; } .ColorScheme-ButtonFocus{ color:#3daee9; }
        </style>
        <style type="text/css" id="current-color-scheme-8-4">
            .ColorScheme-Text { color:#4d4d4d; } .ColorScheme-Background { color:#eff0f1; } .ColorScheme-Highlight { color:#3daee9; } .ColorScheme-ViewText { color:#31363b; } .ColorScheme-ViewBackground { color:#fcfcfc; } .ColorScheme-ViewHover { color:#93cee9; } .ColorScheme-ViewFocus{ color:#3daee9; } .ColorScheme-ButtonText { color:#31363b; } .ColorScheme-ButtonBackground { color:#eff0f1; } .ColorScheme-ButtonHover { color:#93cee9; } .ColorScheme-ButtonFocus{ color:#3daee9; }
        </style>
    </defs>
    <sodipodi:namedview id="base" pagecolor="#ffffff" bordercolor="#666666" borderopacity="1.0" inkscape:pageopacity="0.0" inkscape:pageshadow="2" inkscape:zoom="30.14" inkscape:cx="10.768039" inkscape:cy="10.226606" inkscape:document-units="px" inkscape:current-layer="layer1" showgrid="false" fit-margin-top="0" fit-margin-left="0" fit-margin-right="0" fit-margin-bottom="0" inkscape:window-width="1600" inkscape:window-height="847" inkscape:window-x="0" inkscape:window-y="30" inkscape:window-maximized="1" inkscape:showpageshadow="false" borderlayer="true" inkscape:snap-bbox="true" inkscape:object-nodes="true" showguides="false">
        <inkscape:grid type="xygrid" id="grid4085"/>
        <sodipodi:guide position="2.0000044,14.00003" orientation="12,0" id="guide4075"/>
        <sodipodi:guide position="2.0000044,2.0000296" orientation="0,12" id="guide4077"/>
        <sodipodi:guide position="14.000004,2.0000296" orientation="-12,0" id="guide4079"/>
        <sodipodi:guide position="14.000004,14.00003" orientation="0,-12" id="guide4081"/>
    </sodipodi:namedview>
    <metadata id="metadata3054">
        <rdf:RDF>
            <cc:Work rdf:about="">
                <dc:format>
                    image/svg+xml
                </dc:format>
                <dc:type rdf:resource="http://purl.org/dc/dcmitype/StillImage"/>
                <dc:title/>
            </cc:Work>
        </rdf:RDF>
    </metadata>
    <g inkscape:label="Capa 1" inkscape:groupmode="layer" id="layer1" transform="translate(-421.71429,-523.79074)">
        <path style="opacity:0.72;fill:#ffffff;fill-opacity:1;stroke:none;stroke-width:4;stroke-linecap:round;stroke-linejoin:round;stroke-miterlimit:4;stroke-dasharray:none;stroke-opacity:1" d="M 11 5 L 11 6.0859375 C 10.10944 6.2386175 9.2648569 6.5904844 8.5292969 7.1152344 L 7.7578125 6.34375 L 6.34375 7.7578125 L 7.1132812 8.5273438 C 6.5903313 9.2640038 6.2404937 10.10924 6.0898438 11 L 5 11 L 5 13 L 6.0859375 13 C 6.2386175 13.89056 6.5904844 14.735143 7.1152344 15.470703 L 6.34375 16.242188 L 7.7578125 17.65625 L 8.5273438 16.886719 C 9.2640037 17.409669 10.10924 17.759506 11 17.910156 L 11 19 L 13 19 L 13 17.914062 C 13.89056 17.761382 14.735143 17.409516 15.470703 16.884766 L 16.242188 17.65625 L 17.65625 16.242188 L 16.886719 15.472656 C 17.409669 14.735996 17.759506 13.89076 17.910156 13 L 19 13 L 19 11 L 17.914062 11 C 17.761383 10.10944 17.409516 9.2648569 16.884766 8.5292969 L 17.65625 7.7578125 L 16.242188 6.34375 L 15.472656 7.1132812 C 14.735996 6.5903312 13.89076 6.2404938 13 6.0898438 L 13 5 L 11 5 z M 10 9 L 14 9 L 14 10 L 10 10 L 10 9 z M 10 11 L 14 11 L 14 12 L 10 12 L 10 11 z M 10 13 L 14 13 L 14 14 L 10 14 L 10 13 z " transform="translate(421.71429,523.79074)" id="path4412"/>
    </g>
</svg>

<?xml version="1.0" encoding="UTF-8" standalone="no"?>
<!--Created with Inkscape (http://www.inkscape.org/)-->
<svg id="svg3049" xmlns:rdf="http://www.w3.org/1999/02/22-rdf-syntax-ns#" xmlns="http://www.w3.org/2000/svg" height="24" width="24" version="1.1" xmlns:cc="http://creativecommons.org/ns#" xmlns:dc="http://purl.org/dc/elements/1.1/">
 <defs id="defs3051">
 </defs>
 <metadata id="metadata3054">
  <rdf:RDF>
   <cc:Work rdf:about="">
    <dc:format>image/svg+xml</dc:format>
    <dc:type rdf:resource="http://purl.org/dc/dcmitype/StillImage"/>
    <dc:title/>
   </cc:Work>
  </rdf:RDF>
 </metadata>
 <g id="layer1" transform="translate(-421.71 -523.79)">
  <path id="path4412" opacity="1" fill="#d3dae3" transform="translate(421.71 523.79)" d="m11 5v1.0859c-0.891 0.1527-1.7351 0.5046-2.4707 1.0293l-0.7715-0.7714-1.414 1.414 0.7695 0.7695c-0.523 0.7367-0.8728 1.5817-1.0235 2.4727h-1.0898v2h1.0859c0.1527 0.891 0.5046 1.735 1.0293 2.471l-0.7714 0.771 1.414 1.414 0.7695-0.769c0.7367 0.523 1.5817 0.873 2.4727 1.023v1.09h2v-1.086c0.891-0.153 1.735-0.504 2.471-1.029l0.771 0.771 1.414-1.414-0.769-0.769c0.523-0.737 0.873-1.582 1.023-2.473h1.09v-2h-1.086c-0.153-0.891-0.504-1.7351-1.029-2.4707l0.771-0.7715-1.414-1.414-0.769 0.7695c-0.737-0.523-1.582-0.8728-2.473-1.0235v-1.0898h-2zm-1 4h4v1h-4v-1zm0 2h4v1h-4v-1zm0 2h4v1h-4v-1z"/>
 </g>
</svg>
